icons/svg/amenity/social_centre.svg

<?xml version="1.0" encoding="UTF-8" standalone="no"?>
<!-- Created with Inkscape (http://www.inkscape.org/) -->

<svg
   xmlns:dc="http://purl.org/dc/elements/1.1/"
   xmlns:cc="http://creativecommons.org/ns#"
   xmlns:rdf="http://www.w3.org/1999/02/22-rdf-syntax-ns#"
   xmlns:svg="http://www.w3.org/2000/svg"
   xmlns="http://www.w3.org/2000/svg"
   xmlns:sodipodi="http://sodipodi.sourceforge.net/DTD/sodipodi-0.dtd"
   xmlns:inkscape="http://www.inkscape.org/namespaces/inkscape"
   version="1.0"
   width="580"
   height="580"
   id="svg2"
   sodipodi:version="0.32"
   inkscape:version="0.91 r"
   sodipodi:docname="association.svg"
   inkscape:output_extension="org.inkscape.output.svg.inkscape">
  <metadata
     id="metadata10">
    <rdf:RDF>
      <cc:Work
         rdf:about="">
        <dc:format>image/svg+xml</dc:format>
        <dc:type
           rdf:resource="http://purl.org/dc/dcmitype/StillImage" />
        <cc:license
           rdf:resource="http://web.resource.org/cc/PublicDomain" />
        <dc:language>en</dc:language>
        <dc:title></dc:title>
      </cc:Work>
    </rdf:RDF>
  </metadata>
  <sodipodi:namedview
     inkscape:window-height="1004"
     inkscape:window-width="1920"
     inkscape:pageshadow="2"
     inkscape:pageopacity="0.0"
     guidetolerance="10.0"
     gridtolerance="10.0"
     objecttolerance="10.0"
     borderopacity="1.0"
     bordercolor="#666666"
     pagecolor="#ffffff"
     id="base"
     showgrid="false"
     inkscape:zoom="0.35355339"
     inkscape:cx="684.77782"
     inkscape:cy="361.23148"
     inkscape:window-x="1680"
     inkscape:window-y="0"
     inkscape:current-layer="svg2"
     inkscape:window-maximized="1"
     showguides="false"
     inkscape:snap-global="false" />
  <defs
     id="defs4">
    <inkscape:perspective
       sodipodi:type="inkscape:persp3d"
       inkscape:vp_x="0 : 290 : 1"
       inkscape:vp_y="0 : 1000 : 0"
       inkscape:vp_z="580 : 290 : 1"
       inkscape:persp3d-origin="290 : 193.33333 : 1"
       id="perspective12" />
  </defs>
  <g
     id="g1327">
    <path
       d="M 66.275,1.768 C 24.94,1.768 1.704,23.139 1.704,66.804 L 1.704,516.927 C 1.704,557.771 22.598,579.156 63.896,579.156 L 515.92,579.156 C 557.227,579.156 578.149,558.84 578.149,516.927 L 578.149,66.804 C 578.149,24.203 557.227,1.768 514.627,1.768 C 514.624,1.768 66.133,1.625 66.275,1.768 z"
       style="fill:#111111;stroke:#eeeeee;stroke-width:3.40799999"
       id="path1329" />
  </g>
  <path
     inkscape:connector-curvature="0"
     style="color:#000000;clip-rule:nonzero;display:inline;overflow:visible;visibility:visible;opacity:1;isolation:auto;mix-blend-mode:normal;color-interpolation:sRGB;color-interpolation-filters:linearRGB;solid-color:#000000;solid-opacity:1;fill:#ffffff;fill-opacity:1;fill-rule:nonzero;stroke:none;stroke-width:25;stroke-linecap:round;stroke-linejoin:round;stroke-miterlimit:4;stroke-dasharray:none;stroke-dashoffset:0;stroke-opacity:1;marker:none;color-rendering:auto;image-rendering:auto;shape-rendering:auto;text-rendering:auto;enable-background:accumulate"
     d="m 151.9707,306.31641 c -15.16319,0 -28.17493,9.21233 -33.74414,22.34765 l -2.89258,35.31446 0,38.75586 c 0,4.71422 0.89771,9.21518 2.51954,13.35546 l -79.132817,0 0,26.78907 0,10.71679 0,92.875 24.779038,0 0,-92.875 254.074739,0 0,92.875 24.77513,0 0,-92.875 0.002,0 0,-37.50586 -79.13281,0 c 1.62182,-4.14028 2.51953,-8.64126 2.51953,-13.35546 l 0,-38.75391 -2.89258,-35.31836 c -5.5692,-13.13175 -18.58094,-22.3457 -33.74414,-22.3457 l -77.13086,0 z m -7.71289,49.17382 8.67774,0 0,60.59961 -8.67774,0 z m 83.87891,0 8.67773,0 0,60.59961 -8.67773,0 z"
     id="path4178"
     sodipodi:nodetypes="sccsccccccccccccccsccscscccccccccc" />
  <path
     inkscape:connector-curvature="0"
     style="color:#000000;clip-rule:nonzero;display:inline;overflow:visible;visibility:visible;opacity:1;isolation:auto;mix-blend-mode:normal;color-interpolation:sRGB;color-interpolation-filters:linearRGB;solid-color:#000000;solid-opacity:1;fill:#ffffff;fill-opacity:1;fill-rule:nonzero;stroke:none;stroke-width:25;stroke-linecap:round;stroke-linejoin:round;stroke-miterlimit:4;stroke-dasharray:none;stroke-dashoffset:0;stroke-opacity:1;marker:none;color-rendering:auto;image-rendering:auto;shape-rendering:auto;text-rendering:auto;enable-background:accumulate"
     d="m 190.53711,201.07227 c -24.76076,0 -44.83397,20.07127 -44.83399,44.83203 0,24.76075 20.07323,44.83203 44.83399,44.83203 24.76076,0 44.83203,-20.07128 44.83203,-44.83203 0,-24.76076 -20.07127,-44.83203 -44.83203,-44.83203 z"
     id="path4176" />
  <rect
     style="color:#000000;clip-rule:nonzero;display:inline;overflow:visible;visibility:visible;opacity:0;isolation:auto;mix-blend-mode:normal;color-interpolation:sRGB;color-interpolation-filters:linearRGB;solid-color:#000000;solid-opacity:1;fill:#ffffff;fill-opacity:1;fill-rule:nonzero;stroke:none;stroke-width:29;stroke-linecap:round;stroke-linejoin:round;stroke-miterlimit:10;stroke-dasharray:none;stroke-dashoffset:0;stroke-opacity:1;marker:none;color-rendering:auto;image-rendering:auto;shape-rendering:auto;text-rendering:auto;enable-background:accumulate"
     id="rect4162"
     width="112.5"
     height="178"
     x="608.5"
     y="263.5" />
  <ellipse
     style="color:#000000;clip-rule:nonzero;display:inline;overflow:visible;visibility:visible;opacity:0;isolation:auto;mix-blend-mode:normal;color-interpolation:sRGB;color-interpolation-filters:linearRGB;solid-color:#000000;solid-opacity:1;fill:#ffffff;fill-opacity:1;fill-rule:nonzero;stroke:none;stroke-width:29;stroke-linecap:round;stroke-linejoin:round;stroke-miterlimit:10;stroke-dasharray:none;stroke-dashoffset:0;stroke-opacity:1;marker:none;color-rendering:auto;image-rendering:auto;shape-rendering:auto;text-rendering:auto;enable-background:accumulate"
     id="path4164"
     cx="462.75"
     cy="372.25"
     rx="234.25"
     ry="103.75" />
  <path
     style="fill:#ffffff"
     inkscape:connector-curvature="0"
     id="path15"
     d="M 566.67443,154.46431 540.1742,165.50607 508.9604,58.130403 532.86232,50.524949 566.67443,154.46431 Z" />
  <path
     style="fill:#ffffff"
     inkscape:connector-curvature="0"
     id="path17"
     d="m 191.19974,137.59 34.67886,4.47419 c 0,0 34.35978,2.91115 34.1396,27.57767 11.13159,-5.45845 45.18689,0 27.50473,26.85076 0,0 14.19108,-15.71918 19.64733,-20.95744 5.89661,-6.98435 37.76655,-3.05621 24.23163,24.23163 l -13.09676,17.0271 c 0,0 8.18602,-8.07867 13.09676,-13.09785 4.91183,-5.02138 20.30129,-3.27638 18.33612,13.09785 l -4.48826,11.15578 c 0,0 19.17042,7.67362 19.29957,-8.14333 l -3.45845,-13.70806 4.80448,-4.5843 12.12377,24.43569 c 0,0 17.18434,9.88487 15.87314,-11.72762 l -17.30129,-34.75764 6.54947,-5.89332 23.25254,35.04465 c 0,0 21.39733,6.54838 21.39733,-17.0293 l -32.86322,-50.10768 6.54947,-8.51245 40.03292,49.76383 c 0,0 21.39515,6.23937 19.43217,-16.03038 L 396.89226,88.435603 c 0,0 -21.61141,-28.161972 -40.60477,-32.092314 0,0 -18.56068,20.606911 -40.60258,11.788835 C 302.58815,62.893859 305.20728,53.52072 305.20728,53.52072 l -103.22723,9.537024 2.74498,-17.330104 110.30591,-9.030585 c 0,0 22.92371,-31.4328777 58.94199,-8.512456 l 68.76347,40.604773 53.12862,1.657361 25.14411,86.499287 c -11.13268,1.18633 -40.63653,5.25031 -44.87469,15.31497 0,0 3.27419,26.85186 -32.09012,29.47099 0,0 -5.23937,29.4688 -34.05531,26.19681 0,0 -13.75181,22.91823 -36.67223,11.13268 0,0 -23.57767,13.09785 -36.67443,-0.65396 0,0 -15.06303,6.54728 -25.54284,-9.16971 0,0 -36.67224,13.75401 -33.39805,-23.57767 0,0 -34.05311,15.06194 -34.05311,-27.50254 0,0 -24.23163,2.61695 -24.88669,-20.95853 l -30.93118,-4.16148 z"
     sodipodi:nodetypes="ccccccccccccccccccccccccccccccccccccccccccccc" />
  <path
     style="fill:#ffffff"
     inkscape:connector-curvature="0"
     id="path19"
     d="m 191.36469,42.406952 -16.99753,107.970468 -28.62533,-2.17548 20.86981,-109.85678 24.75305,4.061792 z" />
</svg>

<svg width="580" height="580" viewBox="0 0 580 580" fill="none" xmlns="http://www.w3.org/2000/svg">
<g clip-path="url(#clip0)">
<path d="M66.2751 1.7679C24.9401 1.7679 1.7041 23.1389 1.7041 66.8039V516.927C1.7041 557.771 22.5981 579.156 63.8961 579.156H515.92C557.227 579.156 578.149 558.84 578.149 516.927V66.8039C578.149 24.2029 557.227 1.7679 514.627 1.7679C514.624 1.7679 66.1331 1.6249 66.2751 1.7679Z" fill="#111111" stroke="#EEEEEE" stroke-width="3.408"/>
<path d="M151.971 306.316C136.808 306.316 123.796 315.529 118.227 328.664L115.334 363.979V402.734C115.334 407.449 116.232 411.95 117.854 416.09H38.7207V442.879V453.596V546.471H63.4997V453.596H317.574V546.471H342.35V453.596H342.352V416.09H263.219C264.841 411.95 265.738 407.449 265.738 402.734V363.98L262.846 328.662C257.277 315.53 244.265 306.316 229.102 306.316H151.971H151.971ZM144.258 355.49H152.936V416.09H144.258V355.49ZM228.137 355.49H236.814V416.09H228.137V355.49Z" fill="white"/>
<path d="M190.537 201.072C165.776 201.072 145.703 221.144 145.703 245.904C145.703 270.665 165.776 290.736 190.537 290.736C215.298 290.736 235.369 270.665 235.369 245.904C235.369 221.144 215.298 201.072 190.537 201.072Z" fill="white"/>
<path d="M566.674 154.464L540.174 165.506L508.96 58.1304L532.862 50.5249L566.674 154.464Z" fill="white"/>
<path d="M191.2 137.59L225.879 142.064C225.879 142.064 260.238 144.975 260.018 169.642C271.15 164.183 305.205 169.642 287.523 196.493C287.523 196.493 301.714 180.773 307.17 175.535C313.067 168.551 344.937 172.479 331.402 199.767L318.305 216.794C318.305 216.794 326.491 208.715 331.402 203.696C336.314 198.675 351.703 200.42 349.738 216.794L345.25 227.95C345.25 227.95 364.42 235.623 364.549 219.806L361.091 206.098L365.895 201.514L378.019 225.95C378.019 225.95 395.204 235.835 393.892 214.222L376.591 179.464L383.141 173.571L406.393 208.616C406.393 208.616 427.79 215.164 427.79 191.587L394.927 141.479L401.477 132.966L441.51 182.73C441.51 182.73 462.905 188.97 460.942 166.7L396.892 88.4356C396.892 88.4356 375.281 60.2737 356.288 56.3433C356.288 56.3433 337.727 76.9502 315.685 68.1322C302.588 62.8939 305.207 53.5208 305.207 53.5208L201.98 63.0578L204.725 45.7277L315.031 36.6971C315.031 36.6971 337.955 5.26423 373.973 28.1846L442.736 68.7894L495.865 70.4468L521.009 156.946C509.877 158.132 480.373 162.196 476.135 172.261C476.135 172.261 479.409 199.113 444.044 201.732C444.044 201.732 438.805 231.201 409.989 227.929C409.989 227.929 396.237 250.847 373.317 239.062C373.317 239.062 349.739 252.159 336.642 238.408C336.642 238.408 321.579 244.955 311.1 229.238C311.1 229.238 274.427 242.992 277.702 205.66C277.702 205.66 243.648 220.722 243.648 178.158C243.648 178.158 219.417 180.775 218.762 157.199L187.831 153.038L191.2 137.59Z" fill="white"/>
<path d="M191.365 42.407L174.367 150.377L145.742 148.202L166.611 38.3452L191.365 42.407V42.407Z" fill="white"/>
</g>
<defs>
<clipPath id="clip0">
<path d="M0 0H580V580H0V0Z" fill="white"/>
</clipPath>
</defs>
</svg>
